X: 869
T: Larry O'Gaff
N:"1st Setting"
N:"Collected by F.O'Neill"
B:O'Neill's 869
Z:Transcribed by Dan G. Petersen, dangp@post6.tele.dk
M:6/8
L:1/8
K:G
(3(d/e/f/)|gGG BAG|ded dBG|cec BdB|ABc def|
gGG BAG|ded dBG|cec BdB|AGA G2:|
d|dgg gfg|gaf ged|eaa aga|bgg g2b|
|1 c'ba gfe|ded dBG|cec BdB|AGA G2:|
|2 c'ba gfe|dge dBG|cec BdB|AGA G2|]


